X: 13400
T: Flint Hills Ride
R: jig
M: 6/8
K: Aminor
|:A,2 A, C2 A,|A,2 E D2 D|A,2 A, C2 A,|A,GE DCG,|
A,2 A, C2 A,|A,2 E FAc|dcA GFD|E G,2 A,3:|
|:E2 A B2 B|cBA G2 G|ABc e2 e|ged c2 B|
cde ^f2 ^g|a3 a3|age dcG|AcB A3:|

